public/lightemail.svg

<svg fill="none" height="75" viewBox="0 0 75 75" width="75" xmlns="http://www.w3.org/2000/svg"><path d="m62.5 25-25 15.625-25-15.625v-6.25l25 15.625 25-15.625m0-6.25h-50c-3.46875 0-6.25 2.7813-6.25 6.25v37.5c0 1.6576.65848 3.2473 1.83058 4.4194s2.76182 1.8306 4.41942 1.8306h50c1.6576 0 3.2473-.6585 4.4194-1.8306s1.8306-2.7618 1.8306-4.4194v-37.5c0-3.4687-2.8125-6.25-6.25-6.25z" fill="#d1d5db"/></svg>

<svg width="75" height="75" viewBox="0 0 75 75" fill="none" xmlns="http://www.w3.org/2000/svg">
<path d="M62.5 25L37.5 40.625L12.5 25V18.75L37.5 34.375L62.5 18.75M62.5 12.5H12.5C9.03125 12.5 6.25 15.2813 6.25 18.75V56.25C6.25 57.9076 6.90848 59.4973 8.08058 60.6694C9.25268 61.8415 10.8424 62.5 12.5 62.5H62.5C64.1576 62.5 65.7473 61.8415 66.9194 60.6694C68.0915 59.4973 68.75 57.9076 68.75 56.25V18.75C68.75 15.2813 65.9375 12.5 62.5 12.5Z" fill="#D1D5DB"/>
</svg>
